X: 10472
T: FRANCIS SITWELL -- Strathspey
R: strathspey
B: K\"ohler's Violin Repository, v.1, 1885 p.47 #2
F: http://www.archive.org/details/klersviolinrepos01edin
Z: 2011 John Chambers <jc:trillian.mit.edu>
N: A few long beams broken for readability.
M: C|
L: 1/16
K: Bb
|:\
(v.[F3B,3].B) (.D3.B) [G4B,4] [E4G,4] | (.[F3B,3].B) (ed)cB Ac3 cf3 |\
(.[d3F3].B) (.A3.B) [G4B,4] [E4G,4] |\
[1 (.[F3B,3].B) (ABc2) dB3- [B4D4] :|\
[2 (.[F3B,3].B) (ABc2) dB3 [B2D2] ||
ug2 |\
(.f3.d) (.g3.f) f4 (dg3) | fd3 (.g3.B) (Ac3) c3g |\
(.f3.d) (.g3.f) f4 (dg3) | (edcB) (cf3) dB3 [B3D3]g |
(.f3.d) (.g3.f) f4 (dg3) | fd3 (.b3.B) (Ac3) cf3 |\
(.d3B.) (.A3.B) [G4B,4] [E4G,4] | (.[F3B,3].B) (ABc2) "_Segue Reel."dB3- [B4D4] "_D.C."|]

%%sep 2 1 500

